X:28
T:Lady of the Lake,The. GS.028
M:6/8
L:1/8
Q:3/8=120
S:George Spencer m/s, Leeds,1831
R:.Jig
O:England
A:Leeds
N:The pause is written over the double bar lin
H:1831
Z:vmp.Cherri Graebe
K:G major
BcA G2D | E2DG2D | BcA G2 E | Dddd2c |!
BcA G2D | E2DG2D | E2Dc2B | AGFHG2 :|!
|:c | B2 B BcA | B2c def | g2fe2d | dcB A2 c |!
B2B BcA | B2c def | gfe a2g | fge d2 c ğŸ˜

